!!!COM: Beethoven, Ludwig van
!!!CDT: 1770///-1827///
!!!OTL: Piano Sonata no. 8 in C minor
!!!OTP: path&eacute;tique
!!!OPS: 13
!!!OMV: 1
!!!OMD: Grave &mdash; Allegro molto e con brio
**kern	**kern	**dynam
*staff2	*staff1	*staff1/2
*Ipiano	*Ipiano	*Ipiano
*>[I,A,A1,A,A2,B]	*>[I,A,A1,A,A2,B]	*>[I,A,A1,A,A2,B]
*>norep[I,A,A2,B]	*>norep[I,A,A2,B]	*>norep[I,A,A2,B]
*>I	*>I	*>I
*clefF4	*clefG2	*clefG2
*k[b-e-a-]	*k[b-e-a-]	*k[b-e-a-]
*c:	*c:	*c:
*M4/4	*M4/4	*M4/4
*MM40	*MM40	*MM40
=1-	=1-	=1-
!!!OMD: Grave
!	!	!LO:DY:rj
[4CC [4EE- [4GG [4C	[>4E-< [>4G< [4c	fp
16.CC] 16.EE-] 16.GG] 16.CLL]	16.E-<] 16.G<] 16.cLL]	.
32E-k	32G< 32ck	.
16.D	16.G< 16.Bn 16.d	.
32CJJk	32G< 32c 32e-JJk	.
(<4F#	(>4An< 4c 4e-	.
8G)	8Bn<) 8d	.
16.r	8r	.
32AA-X/	.	.
=2	=2	=2
[4A-X	[4Bn [4d [4f	fp
16.A-LL]	16.B] 16.d] 16.fLL]	.
32A-k	32B 32d 32fk	.
16.G	16.B 16.d 16.g	.
32FnJJk	32B 32d 32a-JJk	.
[4E-	(>4B 4d 4a-	.
8E-]	8c 8e- 8g)	.
16.r	8r	.
32E-	.	.
=3	=3	=3
[4e-	[4f# [4an [4cc	fp
16.e-LL]	16.f#] 16.a] 16.ccLL]	.
32e-k	32f# 32a 32cck	.
16.d	16.f# 16.a 16.dd	.
32cJJk	32f# 32a 32ee-JJk	.
(4c	(>4f#/ 4a 4ee-	fz
16Bn'LL)	16d 16g 16ddLL)	.
32r	32r	.
32e-k	32f#X 32anX 32ccK	.
16.d	16.f# 16.a 16.dd	.
32cJJk	32f# 32a 32ee-JJk	.
=4	=4	=4
(4c	4f#/ 4an/ (4ee-/	fz
8Bn 8dL	8g 8ddL>	p
8B- 8c 8enJ)	8g 8cc 8eenJ)	<
8A-X' 8c' 8fn'	8a-' 8cc' 8ffn'	.
8r	[8aa-	fz
*	*Xtuplet	*
!	!	!LO:DY:b=2:rj
4BBB- 4BB-	(32aa-LLL]	fz
.	96ggL	.
.	96aa-	.
.	96bb-	.
.	96aa-	.
.	96gg	.
.	96ffJJJJ	.
.	64ee-LLLL	.
.	64dd	.
.	64cc	.
.	64b-JJJJ	.
*	*tuplet	*
*	*rscale:1/2	*
.	96a-LLLL	.
.	96g	.
.	96fni	.
.	96e-	.
.	96d	.
.	96f	.
.	96a-	.
.	96f	.
.	96dJJJJ	.
*	*rscale:1	*
=5	=5	=5
16EE- 16E-LL<	8e-')	p
16E- 16G 16B-	.	.
16E- 16G 16B-	[8e-\ [8ee-\	.
16E- 16G 16B-JJ	.	.
16E- 16G 16B-LL	16.e-] 16.ee-LL]	<
16E- 16G 16B-	.	.
.	32e- 32ee-k	.
16E- 16G 16B-	16.f 16.ff	.
16E- 16G 16B-JJ	.	.
.	32g 32ggJJk	[
16E- 16A- 16cLL	8g (8ggL	>
16E- 16A- 16c	.	.
16E- 16A- 16c	16f 16ffJk)	]
16E- 16A- 16cJJ	32r	.
.	32f	ff
16DD 16DLL	16.F< 16.A-< 16.Bn< 16.fLL	.
16DD 16D	.	.
.	32F< 32A-< 32B< 32fk	.
16CC 16C	16.F< 16.A-< 16.c< 16.f	.
16CC 16CJJ	.	.
.	32F< 32A-< 32c< 32fJJk	.
=6	=6	=6
16BBBn 16BBn	8F< 8A-< 8d< 8f	.
16BB 16D 16F 16A-LL	.	.
16BB 16D 16F 16A-	[8f [8ff	p
16BB 16D 16F 16A-JJ	.	.
16BB- 16D 16F 16A-LL	16.f] 16.ffLL]	<
16BB- 16D 16F 16A-	.	.
.	32f 32ffk	.
16BB- 16D 16F 16A-	16.g 16.gg	.
16BB- 16D 16F 16A-JJ	.	.
.	32a- 32aa-JJk	[
16BB- 16C# 16En 16GLL	8a- (8aa-L	>
16BB- 16C# 16E 16G	.	.
16BB- 16C# 16E 16G	16g 16ggJk)	]
16BB- 16C# 16E 16GJJ	32r	.
.	32G 32c# 32en 32g	ff
16AAAn 16AAnLL>	16.An 16.c# 16.e 16.anLL	.
16AAA 16AA	.	.
.	32A 32c# 32e 32ak	.
16GGG 16GG	16.B-X 16.c# 16.e 16.b-X	.
16GGG 16GGJJ	.	.
.	32B- 32c# 32e 32b-JJk	.
=7	=7	=7
16FFF# 16FF#	8An 8d 8f# 8an	.
16F# 16An 16dLL	.	.
16F# 16A 16d	[8an [8aan	p
16F# 16A 16dJJ	.	.
16F# 16A 16dLL	16.a] 16.aaLL]	<
16F# 16A 16d	.	.
.	32a 32aak	.
16F# 16A 16d	16.bn 16.bbn	.
16F# 16A 16dJJ	.	.
.	32cc 32cccJJk	[
16Fn 16A- 16dLL	8cc (8cccL	>
16F 16A- 16d	.	.
16F 16A- 16d	16b 16bbJk)	]
16F 16A- 16dJJ	16r	.
16D 16F 16BnLL	8r	.
16D 16F 16B	.	.
16D 16F 16B	16.b 16.bbLL	.
16D 16F 16BJJ	.	.
.	32cc 32cccJJk	.
=8	=8	=8
16BBn 16D 16A-LL	8cc# (8ccc#L	<
16BB 16D 16A-	.	.
16BB 16D 16A-	8dd 8dddJ)	.
16BB 16D 16A-JJ	.	.
16AA- 16BB 16FLL	8r	.
16AA- 16BB 16F	.	.
16AA- 16BB 16F	16.dd 16.dddLL	.
16AA- 16BB 16FJJ	.	.
.	32ee- 32eee-JJk	.
16GG 16BB 16FLL	8een (8eeen	.
16GG 16BB 16F	.	.
16GG 16BB 16F	4ff 4fff)	.
16GG 16BB 16FJJ	.	.
16AA- 16C 16FLL	.	.
16AA- 16C 16F	.	.
16AA- 16C 16F	8ff 8fff	.
16AA- 16C 16FJJ	.	.
=9	=9	=9
8GG 8BBn 8F	[8ff [8fff	sf
8r	(32ff] 32fffLLL]	p
.	64eee-XL	.
.	64ddd	.
.	64fff	.
.	64eee-	.
.	64ddd	.
.	64cccJJJJ)	.
8r	(16bbn'LL	.
.	16bb'	.
*clefG2	*	*
16g' (16dd'LL>	16ff' 16bb'	.
16g' 16dd'JJ)	16ff' 16bb'JJ)	.
8a-/ 8cc	8ee- 8ccc	.
8r	8r	.
4r	4r	.
*clefF4	*	*
=10	=10	=10
4r	[8cccL	fp
.	(32cccLL]	.
.	64bbnL	.
.	64cccJJJ	.
.	96dddLLL	.
.	96ccc	.
.	96bb-	.
.	96aa-	.
.	96gg	.
.	96bb-JJJJ	.
8r	16aa-'LL)	.
.	(16aa-'	.
16F' 16c' (16d'LL	16aa-'	.
16F' 16c' 16d'JJ)	16aa-'JJ)	.
8G' 8c' 8e-'	(16ggLL	.
.	[16eee-JJ)	.
8r	(96eee-LLLL]	.
.	96ddd	.
.	96ddd-	.
.	96ccc	.
.	96bbn	.
.	96bb-JJJJ)	.
.	(112aanLLLL	.
.	112aa-	.
.	112gg	.
.	112ff#	.
.	112ffn	.
.	112een	.
.	112ee-JJJJ)	.
8GG 8D 8F	(128ddLLLL	.
.	128cc#	.
.	128cc	.
.	128bn	.
.	128b-	.
.	128an	.
.	128a-	.
.	128g	.
.	128f#	.
.	128fn	.
.	128en	.
.	128e-	.
.	128d	.
.	128c#	.
.	128c	.
.	128BnJJJJ)	.
8r;	16.a-;LL	sf
.	32BJJk	.
!!LO:TX:b:rj:i:t=attacca subito l'Allegro
=11||	=11||	=11||
*>A	*>A	*>A
!!!OMD: Allegro molto e con brio
*M2/2	*M2/2	*M2/2
*MM320	*MM320	*MM320
8CCL	2.c	p
8C	.	.
8CC	.	.
8CJ	.	.
8CCL	.	.
8C	.	.
8CC	4B-' 4en'	.
8CJ	.	.
=12	=12	=12
*tremolo	*	*
8CCL	4A-' 4f'	.
8C	.	.
8CC	4en' 4g'	.
8CJ	.	.
8CCL	4f' 4a-'	.
8C	.	.
8CC	4d' 4bn'	.
8CJ	.	.
=13	=13	=13
8CCL	4e-X' 4cc'	.
8C	.	.
8CC	2enz 2ccz	.
8CJ	.	.
8CCL	.	.
8C	.	.
8CC	4b-X' 4een'	.
8CJ	.	.
=14	=14	=14
8CCL	4a-' 4ff'	.
8C	.	.
8CC	4een' 4gg'	.
8CJ	.	.
8CCL	4ff' 4aa-'	.
8C	.	.
8CC	4dd' 4bbn'	.
8CJ	.	.
=15	=15	=15
8CCL	2cc' 2ee-X' 2gg' 2ccc'	<
8C	.	.
8CC	.	.
8CJ	.	.
8DDL	2g' 2bn' 2ff' 2gg'	.
8D	.	.
8DD	.	.
8DJ	.	.
=16	=16	=16
8EE-L	2g' 2cc' 2ee-'	.
8E-	.	.
8EE-	.	.
8E-J	.	.
8FFL	2f'\ 2a-'\ 2dd'\	.
8F	.	.
8FF	.	.
8FJ	.	.
=17	=17	=17
*	*^	*
8GGL	[<1e- [1cc	2g	.
8G	.	.	.
8GG	.	.	.
8GJ	.	.	.
8AA-/L	.	2f#	.
8A-	.	.	.
8AA-	.	.	.
8A-J	.	.	.
*	*v	*v	*
=18	=18	=18
8FF#L	(>2e-] 2a 2cc]	.
8F#	.	.
8FF#	.	.
8F#J	.	.
8GGL	2d 2fn 2bn)	.
8G	.	.
8GG	.	.
8GJ	.	.
=19	=19	=19
8CCL	4c' 4e-' 4cc'	p
8C	.	.
8CC	2c	.
8CJ	.	.
8CCL	.	.
8C	.	.
8CC	4B-X' 4en'	.
8CJ	.	.
=20	=20	=20
8CCL	4A-' 4f'	.
8C	.	.
8CC	4en' 4g'	.
8CJ	.	.
8CCL	4f' 4a-X'	.
8C	.	.
8CC	4d' 4bn'	.
8CJ	.	.
=21	=21	=21
8CCL	4e-X' 4cc'	.
8C	.	.
8CC	2enz 2ccz	.
8CJ	.	.
8CCL	.	.
8C	.	.
8CC	4b-X' 4een'	.
8CJ	.	.
=22	=22	=22
8CCL	4a-' 4ff'	.
8C	.	.
8CC	4een' 4gg'	.
8CJ	.	.
8CCL	4ff' 4aa-'	.
8C	.	.
8CC	4dd' 4bbn'	.
8CJ	.	.
=23	=23	=23
8CCL	2cc' 2ee-X' 2gg' 2ccc'	<
8C	.	.
8CC	.	.
8CJ	.	.
8DDL	2g' 2bn' 2ff' 2gg'	.
8D	.	.
8DD	.	.
8DJ	.	.
=24	=24	=24
8EE-L	2g' 2cc' 2ee-'	.
8E-	.	.
8EE-	.	.
8E-J	.	.
8FFL	2f'\ 2a-'\ 2dd'\	.
8F	.	.
8FF	.	.
8FJ	.	.
=25	=25	=25
*	*^	*
8GGL	[<1e- [1cc	2g	.
8G	.	.	.
8GG	.	.	.
8GJ	.	.	.
8AA-/L	.	2f#	.
8A-/	.	.	.
8AA-/	.	.	.
8A-/J	.	.	.
*	*v	*v	*
=26	=26	=26
8FF#L	1e-] 1an 1cc]	.
8F#X	.	.
8FF#	.	.
8F#XJ	.	.
8FF#L	.	.
8F#	.	.
8FF#	.	.
8F#J	.	.
=27	=27	=27
4GG 4G	4d 4g 4bn	p
4Bn 4d	4r	.
!	!LO:DY:rj	!
4B 4d	[2gz> [2gg	.
4B 4d	.	.
=28	=28	=28
4G	4g] 4gg]	.
4c 4e-	4r	.
!	!LO:DY:rj	!
4c 4e-	[2gz> [2gg	.
4c 4e-	.	.
=29	=29	=29
4d 4f	8g] 8ggL]	.
.	8ff	.
4r	8dd	.
.	8bnJ	.
2r	8gL	.
.	8f	.
.	8d	.
.	8BnJ	.
=30	=30	=30
2r	8cL	.
.	8e-	.
.	8c	.
.	8GJ	.
*Xtremolo	*	*
8AAA-L	8F#L	.
8AA-	8c	.
8AAA-	8A-	.
8AA-J	8F#J	.
=31	=31	=31
4GGG 4GG	4G	.
4Bn 4d	4r	.
4B 4d	[2gz> [2gg	.
4B 4d	.	.
=32	=32	=32
4G	4g] 4gg]	.
4c 4e-	4r	.
4c 4e-	[2gz> [2gg	.
4c 4e-	.	.
=33	=33	=33
4d 4f	8g] 8ggL]	.
.	8ff	.
4r	8dd	.
.	8bnJ	.
2r	8gL	.
.	8f	.
.	8d	.
.	8BnJ	.
=34	=34	=34
2r	8cL	.
.	8e-	.
.	8c	.
.	8GJ	.
8AAA-L	8F#L	.
8AA-	8c	.
8AAA-	8A-	.
8AA-J	8F#J	.
=35	=35	=35
*tremolo	*	*
8GGGL	4G'	.
8GG	.	.
8GGG	4f#'	<
8GGJ	.	.
8GGGL	4g'	.
8GG	.	.
8GGG	4f#' 4cc'	.
8GGJ	.	.
=36	=36	=36
8GGGL	4g' 4bn'	<
8GG	.	.
8GGG	4cc' 4ff#'	.
8GGJ	.	.
8GGGL	4b' 4gg'	.
8GG	.	.
8GGG	4ff#' 4ccc'	[
8GGJ	.	.
=37	=37	=37
8GGGL	4gg 4bbn	.
8GG	.	.
8GGG	4r	.
8GGJ	.	.
8GGGL	2r	.
8GG	.	.
8GGG	.	.
8GGJ	.	.
=38	=38	=38
8GGGL	(1B-Xz 1d-Xz [1e-Xz	.
8GG	.	.
8GGG	.	.
8GGJ	.	.
8GGGL	.	.
8GG	.	.
8GGG	.	.
8GGJ	.	.
=39	=39	=39
8AAA-L	4c 4e-])	.
8AA-	.	.
8AAA-	4dd-'	.
8AA-J	.	.
8AAA-L	4cc'	<
8AA-	.	.
8AAA-	4dd-' 4gg'	.
8AA-J	.	.
=40	=40	=40
8AAA-L	4cc' 4aa-'	.
8AA-	.	.
8AAA-	4gg' 4ddd-'	.
8AA-J	.	.
8AAA-L	4aa-' 4ccc'	.
8AA-	.	.
8AAA-	4gg' 4ddd-'	.
8AA-J	.	.
=41	=41	=41
8AAA-L	4aa-' 4ccc'	[
8AA-	.	.
8AAA-	4r	.
8AA-J	.	.
8AAA-L	2r	.
8AA-	.	.
8AAA-	.	.
8AA-J	.	.
=42	=42	=42
8AAAnL	(>1cz 1e-z 1g-z	.
8AAn	.	.
8AAA	.	.
8AAJ	.	.
8AAAL	.	.
8AA	.	.
8AAA	.	.
8AAJ	.	.
=43	=43	=43
8BBB-L	4dn' 4f')	.
8BB-	.	.
8BBB-	4an' 4ee-'	<
8BB-J	.	.
8BBB-L	4b-' 4dd'	.
8BB-	.	.
8BBB-	4ee-' 4aan'	.
8BB-J	.	.
=44	=44	=44
8BBB-L	4dd' 4bb-'	<
8BB-	.	.
8BBB-	4aan' 4eee-'	.
8BB-J	.	.
8BBB-L	4bb-' 4ddd'	.
8BB-	.	.
8BBB-	4aa' 4eee-'	[
8BB-J	.	.
=45	=45	=45
8BBB-L	4bb-' 4ddd'	.
8BB-	.	.
8BBB-	4r	.
8BB-J	.	.
8BBB-L	2ee-z (2aanz	.
8BB-	.	.
8BBB-	.	.
8BB-J	.	.
=46	=46	=46
8BBB-L	4dd 4bb-)	.
8BB-	.	.
8BBB-	4r	.
8BB-J	.	.
8BBB-L	2anz (2ee-z	.
8BB-	.	.
8BBB-	.	.
8BB-J	.	.
=47	=47	=47
8BBB-L	4b- 4dd)	.
8BB-	.	.
8BBB-	4r	.
8BB-J	.	.
8BBB-L	(>2e-z 2anz	.
8BB-	.	.
8BBB-	.	.
8BB-J	.	.
=48	=48	=48
8BBB-L	4d) 4b-	.
8BB-	.	.
8BBB-	4r	.
8BB-J	.	.
8BBB-L	((2Anz 2e-z	.
8BB-	.	.
8BBB-	.	.
8BB-J	.	.
=49	=49	=49
4BBB- 4BB-	4B- 4d))	.
4r	(4An	p
2r	4B-	.
.	4A	.
=50	=50	=50
1r	4B-	.
.	4An	.
.	4B-	.
.	4A)	.
*clefG2	*clefF4	*clefF4
=51	=51	=51
*^	*	*
4r	1B-	4r	.
4e- 4g-	.	4BB-'	.
4e- 4g-	.	4E-'	.
4e- 4g-	.	4F'	.
=52	=52	=52	=52
4r	1B-	4G-'	.
*	*	*clefG2	*clefG2
4e- 4g-	.	4b-'	.
4e- 4g-	.	4ee-'	.
4e- 4g-	.	4ff'	.
=53	=53	=53	=53
.	.	(8b-q	.
4r	1B-	(2.gg-z)	.
4e- 4g-	.	.	.
4e- 4g-	.	.	.
4e- 4g-	.	4ee-)	.
=54	=54	=54	=54
.	.	(8b-q	.
4r	1B-	(2.gg-z)	.
4e- 4g-	.	.	.
4e- 4g-	.	.	.
4e- 4g-	.	4ee-)	.
=55	=55	=55	=55
4r	1B-	4dd'	.
*	*	*clefF4	*clefF4
4f 4a-	.	4BB-'	.
4f 4a-	.	4F'	.
4f 4a-	.	4G-'	.
=56	=56	=56	=56
4r	1B-	4A-'	.
*	*	*clefG2	*clefG2
4f 4a-	.	(4b-	.
4f 4a-	.	4aa-	.
4f 4a-	.	4gg-)	.
=57	=57	=57	=57
4r	1B-	(4gg-M	.
4f 4a-	.	4ff)	.
4f 4a-	.	(4ffm	.
4f 4a-	.	4ee-)	.
=58	=58	=58	=58
4r	1B-	(4ee-M	.
4f 4a-	.	4dd)	.
4f 4a-	.	4cc'	.
4f 4a-	.	4dd'	.
=59	=59	=59	=59
4r	1B-	4ee-'	.
*	*	*clefF4	*clefF4
4e- 4g-	.	4BB-'\	.
4e- 4g-	.	4E-'	.
4e- 4g-	.	4F'	.
=60	=60	=60	=60
4r	1B-	4G-'	.
*	*	*clefG2	*clefG2
4e- 4g-	.	4b-'	.
4e- 4g-	.	4ee-'	.
4e- 4g-	.	4ff'	.
=61	=61	=61	=61
.	.	(8b-q	.
4r	1B-	(2.gg-z)	.
4e- 4g-	.	.	.
4e- 4g-	.	.	.
4e- 4g-	.	4ee-)	.
=62	=62	=62	=62
.	.	(8b-q	.
4r	1B-	(2.gg-z)	.
4e- 4g-	.	.	.
4e- 4g-	.	.	.
4e- 4g-	.	4ee-)	.
=63	=63	=63	=63
4r	1A-	4cc'	.
*	*	*clefF4	*clefF4
4e- 4g-	.	4AA-'	.
4e- 4g-	.	4E-'	.
4e- 4g-	.	4F'	.
=64	=64	=64	=64
4r	1A-	4G-'	.
*	*	*clefG2	*clefG2
4e- 4g-	.	(4a-\	.
4e- 4g-	.	4gg-	.
4e- 4g-	.	4ff)	.
=65	=65	=65	=65
4r	1A-	(4ffm	.
4e- 4g-	.	4ee-)	.
4e- 4g-	.	(4ee-M	.
4e- 4g-	.	4dd-)	.
=66	=66	=66	=66
4r	1A-	(4dd-M	.
4e- 4g-	.	4cc)	.
4e- 4g-	.	4b-'	.
4e- 4g-	.	4cc'	.
=67	=67	=67	=67
4r	1A-	4dd-	.
*	*	*clefF4	*clefF4
4d- 4f	.	4AA-'	.
4d- 4f	.	4D-'	.
4d- 4f	.	4E-'	.
=68	=68	=68	=68
4r	1A-	4F'	.
*	*	*clefG2	*clefG2
4d- 4f	.	4a-'	.
4d- 4f	.	4dd-'	.
4d- 4f	.	4ee-'	.
=69	=69	=69	=69
.	.	(8a-q	.
4r	1A-	(2.ffz)	.
4d- 4f	.	.	.
4d- 4f	.	.	.
4d- 4f	.	4dd-)	.
=70	=70	=70	=70
.	.	(8a-q	.
4r	1A-	(2.ffz)	.
4d- 4f	.	.	.
4d- 4f	.	.	.
4d- 4f	.	4dd-)	.
=71	=71	=71	=71
4r	1A-	4cc'	.
*	*	*clefF4	*clefF4
4e- 4g-	.	4AA-'	.
4e- 4g-	.	4E-'	.
4e- 4g-	.	4F'	.
=72	=72	=72	=72
4r	1A-	4G-'	.
*	*	*clefG2	*clefG2
4e- 4g-	.	(4a-	.
4e- 4g-	.	4gg-	.
4e- 4g-	.	4ff)	.
=73	=73	=73	=73
4r	1A-	(4ffm	.
4e- 4g-	.	4ee-)	.
4e- 4g-	.	(4ee-M	.
4e- 4g-	.	4dd-)	.
=74	=74	=74	=74
4r	1A-	(4dd-M	.
4e- 4g-	.	4cc)	.
4e- 4g-	.	4b-'	.
4e- 4g-	.	4cc'	.
=75	=75	=75	=75
4r	2d-	4dd-'	.
*	*	*clefF4	*clefF4
4f 4a-	.	(4D-z	.
4r	2c-	4A-)	.
4f 4a-	.	4C-'	.
=76	=76	=76	=76
4r	1B-	4BB-'	.
*	*	*clefG2	*clefG2
4f 4a-	.	(4b-	.
4f 4a-	.	4aa-	.
4f 4a-	.	4gg-)	.
=77	=77	=77	=77
4r	1B-	(4gg-M	.
4f 4a-	.	4ff)	.
4f 4a-	.	(4ffm	.
4f 4a-	.	4ee-)	.
=78	=78	=78	=78
4r	1B-	(4ee-M	.
4f 4a-	.	4ddn)	.
4f 4a-	.	4cc'	.
4f 4a-	.	4dd'	.
=79	=79	=79	=79
4r	2e-	4ee-	.
*	*	*clefF4	*clefF4
4g- 4b-	.	(4E-z	.
4r	2d-	4B-)	.
4f 4b-	.	4D-'	.
=80	=80	=80	=80
4r	1c	4C'	.
*	*	*clefG2	*clefG2
4gn 4b-	.	(4cc	.
4g 4b-	.	4bb-	.
4g 4b-	.	4aa-)	.
=81	=81	=81	=81
4r	1c	(4aa-M	.
4g 4b-	.	4ggn)	.
4g 4b-	.	(4ggm	.
4g 4b-	.	4ff)	.
=82	=82	=82	=82
4r	1c	(4ffM	.
4g 4b-	.	4een)	.
4g 4b-	.	(4ddn	.
4g 4b-	.	4ee)	.
=83	=83	=83	=83
4r	1f	(4ggm	.
4a-	.	4ff)	.
4a-	.	(4ffM	.
4a-	.	4ee-X)	.
=84	=84	=84	=84
4r	(2B-	(4ee-M	.
4f 4a-	.	4dd)	.
4f 4a-	2Bn)	(4cc	.
4f 4a-	.	4dd)	.
=85	=85	=85	=85
4r	1c	(4ffM	.
4e- 4g	.	4ee-)	.
4e- 4g	.	(4ee-M	.
4e- 4g	.	4dd)	.
=86	=86	=86	=86
4r	1A-	(4ddm	.
.	.	.	>
4e- 4f	.	4cc)	.
4e- 4f	.	(4ccM	.
4e- 4f	.	4bn)	.
=87	=87	=87	=87
4r	1B-	(4ccM	.
4e- 4g	.	4b-X)	.
4e- 4g	.	4b-'	.
4e- 4g	.	4b-'	.
=88	=88	=88	=88
4r	1B-	(4ccM	pp
4d 4f	.	4b-)	.
4d 4f	.	4b-'	.
4d 4f	.	4b-'	.
*v	*v	*	*
*clefF4	*	*
=89	=89	=89
*Xtremolo	*	*
*^	*^	*
8r	[1E-	2ryy	8r	.
8B-L	.	.	8e-L<	p
8G	.	.	8g	.
8B-J	.	.	8e-J	.
8GL	.	[2ee-	8ee-L	.
8B-	.	.	8e-	.
8G	.	.	8g	.
8B-J	.	.	8e-J	.
=90	=90	=90	=90	=90
8GL	2E-]	2ee-]	8gL	.
8B-	.	.	8e-	.
8G	.	.	8g	.
8B-J	.	.	8e-J	.
8r	2E-	2ee-	8re	.
8B-L	.	.	8e-L	.
8G	.	.	8g	.
8B-J	.	.	8e-J	.
=91	=91	=91	=91	=91
8r	[1D-	2ryy	8r	.
8B-L	.	.	8e-L<	.
8G	.	.	8g	.
8B-J	.	.	8e-J	.
8GL	.	[2ee-	8ee-L	.
8B-	.	.	8e-	.
8G	.	.	8g	.
8B-J	.	.	8e-J	.
=92	=92	=92	=92	=92
8GL	2D-]	2ee-]	8gL	.
8B-	.	.	8e-	.
8G	.	.	8g	.
8B-J	.	.	8e-J	.
8r	2D-	2ee-	8r	.
8B-L	.	.	8e-L	.
8G	.	.	8g	.
8B-J	.	.	8e-J	.
*v	*v	*	*	*
*	*v	*v	*
=93	=93	=93
8C'L	8ee-'L<	<
8A-	8e-	.
8E-	8a-	.
8A-J	8e-J	.
8BB-'L	8een'L<	.
8G	8en	.
8C	8cc	.
8GJ	8eJ	.
=94	=94	=94
8AA-'L	8ff'L<	.
8A-	8f	.
8C	8cc	.
8A-J	8fJ	.
8GG'L	8gg'L	.
8G	8g	.
8C	8cc	.
8GJ	8gJ	.
=95	=95	=95
8FF'L	8aa-'L	.
8F	8a-	.
8C	8cc	.
8FJ	8a-J	.
8EE-'L	8aan'L	.
8E-	8an	.
8FF	8cc	.
8E-J	8aJ	.
=96	=96	=96
8DD'L	8bb-'L	.
8D	8b-	.
8FF	8ff	.
8DJ	8b-J	.
8CC'L	8ccc'L	<
8C	8cc	.
8FF	8ff	.
8CJ	8ccJ	.
=97	=97	=97
8BBB-'L	8ddd-'L	.
8BB-	8dd-	.
8FF	8ff	.
8BB-J	8dd-J	.
8AAA-'L	8dddn'L	.
8AA-	8ddn	.
8FF	8ff	.
8AA-J	8ddJ	.
=98	=98	=98
8GGG'L	8eee-'L	.
8GG	8ee-	.
8EE-	8gg	.
8GGJ	8ee-J	.
8GGG'L	8bbn'L	.
8GG	8bn	.
8EE-	8ee-	.
8GGJ	8bJ	[
=99	=99	=99
4AAA-' 4AA-'	8r	.
.	8ccL	f
4r	8ee-	.
.	8ccJ	.
2r	8ccc'L	.
.	8cc	.
.	8ee-	.
.	8ccJ	.
=100	=100	=100
4BBB-' 4BB-'	8r	.
.	8fL	.
4r	8a-	.
.	8fJ	.
2r	8dd'L	.
.	8f	.
.	8a-	.
.	8fJ	.
=101	=101	=101
*^	*^	*
8r	[1E-	2ryy	8r	.
8B-L	.	.	8e-L<	p
8G	.	.	8g	.
8B-J	.	.	8e-J	.
8GL	.	[2ee-	8ee-L	.
8B-	.	.	8e-	.
8G	.	.	8g	.
8B-J	.	.	8e-J	.
=102	=102	=102	=102	=102
8GL	2E-]	2ee-]	8gL	.
8B-	.	.	8e-	.
8G	.	.	8g	.
8B-J	.	.	8e-J	.
8r	2E-	2ee-	8re	.
8B-L	.	.	8e-L	.
8G	.	.	8g	.
8B-J	.	.	8e-J	.
=103	=103	=103	=103	=103
8r	[1D-	2ryy	8r	.
8B-L	.	.	8e-L<	.
8G	.	.	8g	.
8B-J	.	.	8e-J	.
8GL	.	[2ee-	8ee-L	.
8B-	.	.	8e-	.
8G	.	.	8g	.
8B-J	.	.	8e-J	.
=104	=104	=104	=104	=104
8GL	2D-]	2ee-]	8gL	.
8B-	.	.	8e-	.
8G	.	.	8g	.
8B-J	.	.	8e-J	.
8r	2D-	2ee-	8re	.
8B-L	.	.	8e-L	.
8G	.	.	8g	.
8B-J	.	.	8e-J	.
*v	*v	*	*	*
*	*v	*v	*
=105	=105	=105
8C'L	8ee-'L<	<
8A-	8e-	.
8E-	8a-	.
8A-J	8e-J	.
8BB-'L	8een'L<	.
8G	8en	.
8C	8cc	.
8GJ	8eJ	.
=106	=106	=106
8AA-'L	8ff'L<	.
8A-	8f	.
8C	8cc	.
8A-J	8fJ	.
8GG'L	8gg'L	.
8G	8g	.
8C	8cc	.
8GJ	8gJ	.
=107	=107	=107
8FF'L	8aa-'L	.
8F	8a-	.
8C	8cc	.
8FJ	8a-J	.
8EE-'L	8aan'L	.
8E-	8an	.
8FF	8cc	.
8E-J	8aJ	.
=108	=108	=108
8DD'L	8bb-'L	.
8D	8b-	.
8FF	8ff	.
8DJ	8b-J	.
8CC'L	8ccc'L	<
8C	8cc	.
8FF	8ff	.
8CJ	8ccJ	.
=109	=109	=109
8BBB-'L	8ddd-'L	.
8BB-	8dd-	.
8FF	8ff	.
8BB-J	8dd-J	.
8AAA-'L	8dddn'L	.
8AA-	8ddn	.
8FF	8ff	.
8AA-J	8ddJ	.
=110	=110	=110
8GGG'L	8eee-'L	.
8GG	8ee-	.
8EE-	8bb-	.
8GGJ	8ee-J	.
8GGG'L	8eeen'L	.
8GG	8een	.
8GGG	8bb-	.
8GGJ	8eeJ	[
=111	=111	=111
4AAA- 4AA-	8r	.
.	8aa-L	f
4r	8ccc	.
.	8aa-J	.
2r	8fff'L	.
.	8aa-	.
.	8ccc	.
.	8aa-J	.
=112	=112	=112
4BBB- 4BB-	8r	.
.	8ffL	.
4r	8aa-	.
.	8ffJ	.
2r	8ddd'L	.
.	8ff	.
.	8aa-	.
.	8ffJ	.
=113	=113	=113
4EE-' 4E-'	4gg	.
*clefG2	*	*
4e- 4g	(2eee-	p
4e- 4g	.	.
4e- 4g	8dddL	.
.	8eee-J	.
=114	=114	=114
*^	*	*
4r	1c	8fffL	.
.	.	8eee-	.
4e- 4g	.	8ddd	.
.	.	8cccJ	.
4e- 4g	.	8bbnL	.
.	.	8ccc	.
4e- 4g	.	8ddd	.
.	.	8cccJ	.
=115	=115	=115	=115
4r	1A-	8bb-XL	.
.	.	8aa-	.
4e- 4f	.	8gg	.
.	.	8ffJ	.
4e- 4f	.	8eenL	.
.	.	8ff	.
4e- 4f	.	8gg	.
.	.	8ffJ	.
=116	=116	=116	=116
4r	1B-	8ee-XL	.
.	.	8dd	.
4d 4f	.	8cc	.
.	.	8b-J	.
4d 4f	.	8anL<	.
.	.	8b-	.
4d 4f	.	8cc	.
.	.	8a-J)	.
*v	*v	*	*
*clefF4	*	*
=117	=117	=117
*^	*	*
4r	1E-	4g	.
4G 4e-	.	(2ee- 2eee-	<
4G 4e-	.	.	.
4G 4e-	.	8dddL	.
.	.	8eee-J	.
=118	=118	=118	=118
4r	1C	8fffL	.
.	.	8eee-	.
4E- 4G 4c	.	8ddd	.
.	.	8cccJ	.
4E- 4G 4c	.	8bbnL	.
.	.	8ccc	.
4E- 4G 4c	.	8ddd	.
.	.	8cccJ	.
=119	=119	=119	=119
4r	1AA-	8bb-XL	.
.	.	8aa-	.
4E- 4F 4A-	.	8gg	.
.	.	8ffJ	.
4E- 4F 4A-	.	8eenL	.
.	.	8ff	.
4E- 4F 4A-	.	8gg	.
.	.	8ffJ	.
=120	=120	=120	=120
4r	1BB-	8ee-XL	.
.	.	8dd	.
4D 4F 4B-	.	8cc	.
.	.	8b-J	.
4D 4F 4B-	.	8anL	.
.	.	8b-	.
4D 4F 4B-	.	8cc	.
.	.	8b-J	.
*v	*v	*	*
=121	=121	=121
*tremolo	*	*
8EE-L	4ee-')	f
8E-	.	.
8EE-	2e-^	.
8E-J	.	.
8EE-L	.	.
8E-	.	.
8EE-	4d-' 4g'	.
8E-J	.	.
=122	=122	=122
8EE-L	4c' 4a-'	.
8E-	.	.
8EE-	4g' 4b-'	.
8E-J	.	.
8EE-L	4a-'/ 4cc'/	.
8E-	.	.
8EE-	4a-'/ 4ddn'/	.
8E-J	.	.
=123	=123	=123
8EE-L	4g' 4ee-'	.
8E-	.	.
8EE-	2ee-^	.
8E-J	.	.
8EE-L	.	.
8E-	.	.
8EE-	4dd-' 4gg'	.
8E-J	.	.
=124	=124	=124
8EE-L	4cc' 4aa-'	.
8E-	.	.
8EE-	4gg' 4bb-'	.
8E-J	.	.
8EE-L	4aa-' 4ccc'	.
8E-	.	.
8EE-	4aa-' 4dddn'	.
8E-J	.	.
=125	=125	=125
8EE-L	1gg 1eee-	f
8E-	.	.
8EE-	.	.
8E-J	.	.
8EE-L	.	.
8E-	.	.
8EE-	.	.
8E-J	.	.
=126	=126	=126
8DDL	1g 1ee-	.
8D	.	.
8DD	.	.
8DJ	.	.
8DDL	.	.
8D	.	.
8DD	.	.
8DJ	.	.
=127	=127	=127
8CCL	1gg 1eee-	.
8C	.	.
8CC	.	.
8CJ	.	.
8CCL	.	.
8C	.	.
8CC	.	.
8CJ	.	.
=128	=128	=128
8BBB-L	1g 1ee-	.
8BB-	.	.
8BBB-	.	.
8BB-J	.	.
8BBB-L	.	.
8BB-	.	.
8BBB-	.	.
8BB-J	.	.
=129	=129	=129
8AAA-L	1cccz 1eee-z	.
8AA-	.	.
8AAA-	.	.
8AA-J	.	.
8AAA-L	.	.
8AA-	.	.
8AAA-	.	.
8AA-J	.	.
=130	=130	=130
8GGGL	1ccz 1ee-z	.
8GG	.	.
8GGG	.	.
8GGJ	.	.
8GGGL	.	.
8GG	.	.
8GGG	.	.
8GGJ	.	.
=131	=131	=131
*>A1	*>A1	*>A1
1FFF# 1FF#	1aan 1ccc 1ddd	sf
=132	=132	=132
1GGG;< 1GG;<	1F; 1Bn; 1d;	ff
=133:|!	=133:|!	=133:|!
*>A2	*>A2	*>A2
1FFF# 1FF#	1aan 1ccc 1ddd	sf
=134	=134	=134
1FF#;< 1F#;<	1An; 1c; 1d;	ff
=135||	=135||	=135||
*>B	*>B	*>B
!!!OMD: Tempo primo
*M4/4	*M4/4	*
*MM40	*MM40	*
[4GGG [4BBB- [4DD [4GG	[4G [4B- [4d [4g	fp
16.GGG] 16.BBB-] 16.DD] 16.GGLL<]	16.G] 16.B-] 16.d] 16.gLL]	.
32B-k	32d 32gk	.
16.An	16.d 16.f# 16.an	.
32GJJk	32d 32b-JJk	.
(4c#	(4en 4g 4b-	.
8d)	8f#) 8a	.
16.r	8r	.
32E-	.	.
=136	=136	=136
[4e-	[4f# [4an [4cc	fp
16.e-LL]	16.f#] 16.a] 16.ccLL]	.
32e-k	32f# 32a 32cck	.
16.d	16.f# 16.a 16.dd	.
32cJJk	32f# 32a 32ee-JJk	.
4.B-	(((4f#/ 4a/ 4ee-/	.
.	8g/ 8b-/ 8dd/)))	.
16.r	8r	.
32E-	.	.
=137	=137	=137
[4e-	[4f# [4an [4cc	fp
16.e-LL]	16.f#] 16.a] 16.ccLL]	.
32e-k	32f# 32a 32cck	.
16.d	16.f# 16.a 16.dd	.
32cJJk	32f# 32a 32dd#JJk	.
(8c	(>4f# 4a 4dd#	p
4Bn)	.	.
.	4en 4g 4een	.
(8B	.	.
=138	=138	=138
8Bn)	4d# 4f# 4an	.
4BBn	.	>
.	4Bn 4en 4g	.
4BB	.	.
.	4An 4c 4d# 4f#	.
4BBBn	.	.
.	4F#;) 4A; 4d#;	pp
8BBB;	.	.
=139||	=139||	=139||
!!!OMD: Allegro molto e con brio
*k[]	*k[]	*k[]
*M2/2	*M2/2	*M2/2
*MM320	*MM320	*MM320
*Xtremolo	*	*
8EEL	4e'	p
8E	.	.
8EE	4a'	.
8EJ	.	.
8EEL	4g'	<
8E	.	.
8EE	4a'/ 4dd#'/	.
8EJ	.	.
=140	=140	=140
*tremolo	*	*
8EEL	4g' 4ee'	.
8E	.	.
8EE	4dd#' 4aa'	.
8EJ	.	.
8EEL	4ee' 4gg'	.
8E	.	.
8EE	4aa' 4ddd#'	.
8EJ	.	.
=141	=141	=141
4EE 4E	4gg' 4eee'	f
4G 4B	4r	.
4G 4B	4e'\ 4ee'\	.
4G 4B	4r	.
=142	=142	=142
4E	4r	.
4G 4B	4e'\ 4ee'\	p
4G 4B	4f#' 4ff#'	.
4G 4B	4g' 4gg'	.
=143	=143	=143
4E	2g (2gg	.
4A 4c	.	.
4A 4c	4f# 4ff#)	.
4A 4c	4r	.
=144	=144	=144
4E-	4r	.
4A 4c	4f#' 4ff#'	.
4A 4c	4g' 4gg'	.
4A 4c	4a' 4aa'	.
=145	=145	=145
8DDL	4a' 4aa'	<
8D	.	.
8DD	4g'	.
8DJ	.	.
8DDL	4f#'	.
8D	.	.
8DD	4g' 4cc#'	.
8DJ	.	.
=146	=146	=146
8DDL	4f#'\ 4dd'\	.
8D	.	.
8DD	4cc#' 4gg'	.
8DJ	.	.
8DDL	4dd' 4ff#'	.
8D	.	.
8DD	4gg' 4ccc#'	.
8DJ	.	.
=147	=147	=147
4DD 4D	4ff#' 4ddd'	f
4A 4c	4r	.
4A 4c	4f#' 4ff#'	.
4A 4c	4r	.
=148	=148	=148
4D	4r	.
4A 4c	4f#' 4ff#'	p
4A 4c	4g' 4gg'	.
4A 4c	4a' 4aa'	.
=149	=149	=149
4D	2a (2aa	.
4G 4B-	.	.
4G 4B-	4g 4gg)	.
4G 4B-	4r	.
=150	=150	=150
4D-	4r	.
4G 4B-	4g' 4gg'	.
4G 4B-	4a' 4aa'	.
4G 4B-	4b-' 4bb-'	.
=151	=151	=151
4CC 4C	8b-L	<
.	8bb-	.
(4D-	8b-	.
.	8bb-J	.
*	*tremolo	*
4C)	8b-L	.
.	8bb-	.
(4F	8b-	.
.	8bb-J	.
=152	=152	=152
4E)	8b-L	<
.	8bb-	.
(4d-	8b-	.
.	8bb-J	.
4c)	8b-L	.
.	8bb-	.
(4f	8b-	.
.	8bb-J	[
=153	=153	=153
4en)	8b-L	.
.	8bb-	.
(4f#	8b-	.
.	8bb-J	.
4g)	8b-L	.
.	8bb-	.
4r	8b-	.
.	8bb-J	.
=154	=154	=154
1r	8b-L	.
.	8bb-	.
.	8b-	.
.	8bb-J	.
.	8b-L	.
.	8bb-	.
.	8b-	.
.	8bb-J	.
=155	=155	=155
4r	8anL	.
.	8aan	.
(4GG-	8a	.
.	8aaJ	.
4FF)	8aL	.
.	8aa	.
(4D-	8a	.
.	8aaJ	.
=156	=156	=156
4C\)	8aL	.
.	8aa	.
(4G-	8a	.
.	8aaJ	.
4F)	8aL	.
.	8aa	.
(4d-	8a	.
.	8aaJ	.
=157	=157	=157
4c)	8aL	.
.	8aa	.
(4en	8a	.
.	8aaJ	.
4f)	8aL	.
.	8aa	.
4r	8a	.
.	8aaJ	.
=158	=158	=158
1r	8aL	.
.	8aa	.
.	8a	.
.	8aaJ	.
.	8aL	.
.	8aa	.
.	8a	.
.	8aaJ	.
=159	=159	=159
4r	8a-L	.
.	8aa-	.
(4C	8a-	.
.	8aa-J	.
4BB	8a-L	.
.	8aa-	.
4D/)	8a-	.
.	8aa-J	.
=160	=160	=160
4F'	8a-L	.
.	8aa-	.
(4c	8a-	.
.	8aa-J	.
4Bn	8a-L	.
.	8aa-	.
4d')	8a-	.
.	8aa-J	.
=161	=161	=161
4f'	8a-L	.
.	8aa-	.
4r	8a-	.
.	8aa-J	.
4d'	8a-L	.
.	8aa-	.
4r	8a-	.
.	8aa-J	.
=162	=162	=162
4B'	8a-L	.
.	8aa-	.
4r	8g	.
.	8ggJ	.
4G'	8gL	.
.	8gg	.
4r	8f	.
.	8ffJ	.
=163	=163	=163
4D-' 4d-'	8fL	.
.	8ff	.
4r	8e	.
.	8eeJ	.
4BB-' 4B-'	8eL<	.
.	8ee	.
4r	8d-	.
.	8dd-J	.
=164	=164	=164
4GG'\ 4G'\	8d-L	.
.	8dd-	.
4r	8c	.
.	8ccJ	.
4EE'\ 4E'\	8cL	.
.	8cc	.
4r	8B-	.
.	8b-J	.
=165	=165	=165
4FF'\ 4F'\	8B-L	p
.	8b-	.
4rGG	8A-<	.
.	8a-J	.
2rGG	8A-<L	.
.	8a-	.
.	8G<	.
.	8gJ	.
=166	=166	=166
4FFF 4FF	8G<L	.
.	8g	.
4rDD	8F<	.
.	8fJ	.
2rDD	8F<L	.
.	8f	.
.	8E-<	.
.	8e-J	.
=167	=167	=167
4FFF#\ 4FF#\	8E-<L	.
.	8e-	.
4rDD	8D<	.
.	8dJ	.
2rDD	8D<L	.
.	8d	.
.	8E-<	.
.	8e-J	.
=168	=168	=168
4FFF#\ 4FF#\	8E-<L	.
.	8e-	.
4rDD	8D<	.
.	8dJ	.
2rDD	8D<L	.
.	8d	.
.	8C<	.
.	8cJ	.
=169	=169	=169
*	*clefF4	*
8GGGL	4BBn 4Bn	.
8GG	.	.
8GGG	4r	.
8GGJ	.	.
8GGGL	(8C#L	pp
8GG	8A-	.
8GGG	8En	.
8GGJ	8C#J	.
=170	=170	=170
8GGGL	8DL	.
8GG	8A-	.
8GGG	8F	.
8GGJ	8DJ	.
8GGGL	8CnL	.
8GG	8A-	.
8GGG	8E-	.
8GGJ	8CJ	.
=171	=171	=171
8GGGL	8BBnL<	.
8GG	8G	.
8GGG	8D	.
8GGJ	8BBJ	.
8GGGL	8C#L	.
8GG	8A-	.
8GGG	8En	.
8GGJ	8C#J	.
=172	=172	=172
8GGGL	8DL	.
8GG	8A-	.
8GGG	8F	.
8GGJ	8DJ	.
8GGGL	8CnL	.
8GG	8A-	.
8GGG	8E-	.
8GGJ	8CJ	.
=173	=173	=173
8GGGL	4BBn 4D 4G)	.
8GG	.	.
*	*clefG2	*clefG2
8GGG	4en'	.
8GGJ	.	<
8GGGL	4f'	.
8GG	.	.
8GGG	4e' 4cc#'	.
8GGJ	.	.
=174	=174	=174
8GGGL	4f'\ 4dd'\	.
8GG	.	.
8GGG	4cc#' 4ee'	.
8GGJ	.	.
8GGGL	4dd' 4ff'	.
8GG	.	.
8GGG	4ee' 4ccc#'	.
8GGJ	.	.
=175	=175	=175
*^	*	*
4GGG	(2GGG	4ff' 4ddd'	.
2GG	.	4ccc#' 4eee'	.
.	2BBB	[2dddz [2fffz	.
[4GG	.	.	.
=176	=176	=176	=176
4GG]	2CC	2ddd] 2fff]	.
2GG	.	.	.
.	2FFF#)	2cccn 2eee-T	.
4GG	.	.	.
.	.	(16dddLLq	.
.	.	16eee-JJq)	.
*v	*v	*	*
=177	=177	=177
8GGGL	4bbn 4ddd	.
8GG	.	.
8GGG	4r	.
8GGJ	.	.
*	*clefF4	*clefF4
8GGGL	(8C#L	pp
8GG	8A-	.
8GGG	8En	.
8GGJ	8C#J	.
=178	=178	=178
8GGGL	8DL	.
8GG	8A-	.
8GGG	8F	.
8GGJ	8DJ	.
8GGGL	8CnL	.
8GG	8A-	.
8GGG	8E-	.
8GGJ	8CJ	.
=179	=179	=179
8GGGL	8BBnL<	.
8GG	8G	.
8GGG	8D	.
8GGJ	8BBJ	.
8GGGL	8C#L	.
8GG	8A-	.
8GGG	8En	.
8GGJ	8C#J	.
=180	=180	=180
8GGGL	8DL	.
8GG	8A-	.
8GGG	8F	.
8GGJ	8DJ	.
8GGGL	8CnL	.
8GG	8A-	.
8GGG	8E-	.
8GGJ	8CJ	.
=181	=181	=181
8GGGL	4BBn 4D 4G)	.
8GG	.	.
*	*clefG2	*clefG2
8GGG	4e'	<
8GGJ	.	.
8GGGL	4f'	.
8GG	.	.
8GGG	4e' 4cc#'	.
8GGJ	.	.
=182	=182	=182
8GGGL	4f'\ 4dd'\	.
8GG	.	.
8GGG	4cc#' 4ee'	.
8GGJ	.	.
8GGGL	4dd' 4ff'	.
8GG	.	.
8GGG	4ee' 4ccc#'	.
8GGJ	.	.
=183	=183	=183
*^	*	*
4GGG	(2GGG	4ff' 4ddd'	.
2GG	.	4ccc#' 4eee'	.
.	2BBBn	[2dddz [2fffz	.
[4GG	.	.	.
=184	=184	=184	=184
4GG]	2CC	2ddd] 2fff]	.
2GG	.	.	.
.	2FFF#)	2cccn 2eee-T	.
4GG	.	.	.
.	.	(16dddLLq	.
.	.	16eee-JJq)	.
=185	=185	=185	=185
4GGG	(2GGG	4bb' 4ddd'	.
2GG	.	4ccc#' 4eee'	.
.	2BBBn	[2dddz [2fffz	.
[4GG	.	.	.
=186	=186	=186	=186
4GG]	2CC	2ddd] 2fff]	.
2GG	.	.	.
.	2FFF#)	2cccn 2eee-	.
4GG	.	.	.
.	.	(16dddqLL	.
.	.	16eee-qJJ)	.
=187	=187	=187	=187
4GGG	(2GGG	4bb' 4ddd'	.
2GG	.	4ccc#' 4eee'	.
.	2BBBn	[2dddz [2fffz	.
[4GG	.	.	.
=188	=188	=188	=188
4GG]	2CC	2ddd] 2fff]	.
2GG	.	.	.
.	2FFF#)	2cccn 2eee-T	.
[4GG	.	.	.
.	.	(16dddLLq	.
.	.	16eee-JJq)	.
*v	*v	*	*
=189	=189	=189
4GGG' 4GG']	8bbn 8dddL	fp
.	8fff	.
4r	8ddd	.
.	8cccJ	.
2r	8bbL	.
.	8fff	.
.	8ddd	.
.	8cccJ	.
=190	=190	=190
1r	8bbnL	.
.	8fff	.
.	8ddd	.
.	8cccJ	.
.	8bbL	.
.	8ddd	.
.	8bb	.
.	8ggJ	.
=191	=191	=191
1r	8aa-L	.
.	8bb-	.
.	8aa-	.
.	8ggJ	.
.	8ffL	.
.	8aa-	.
.	8ff	.
.	8ee-J	.
=192	=192	=192
1r	8ddL	.
.	8ff	.
.	8dd	.
.	8ccJ	.
.	8bnL	.
.	8dd	.
.	8b	.
.	8gJ	.
=193	=193	=193
1r	8a-L<	.
.	8b-	.
.	8a-	.
.	8gJ	.
.	8fL<	.
.	8a-	.
.	8f	.
.	8e-J	.
=194	=194	=194
1rGG	8dL	.
.	8f	.
.	8d	.
.	8cJ	.
*	*clefF4	*clefF4
.	8Bn<L	.
.	8d<	.
.	8B<	.
.	8G<J	.
=195	=195	=195
1rGG	8A-<L	.
.	8B-<	.
.	8A-<	.
.	8G<J	.
.	8F<L	.
.	8E-<	.
.	8D<	.
.	8C<J	.
=196	=196	=196
2rEE	8BBn<L	.
.	8C<	.
.	8BB<	.
.	8AA-<J	.
8GGL<	2rGG	.
8FF	.	.
8EE-	.	.
8DDJ	.	.
=197||	=197||	=197||
*	*clefG2	*
*k[b-e-a-]	*k[b-e-a-]	*
*Xtremolo	*	*
8CCL	2.c	p
8C	.	.
8CC	.	.
8CJ	.	.
8CCL	.	.
8C	.	.
8CC	4B-X' 4en'	.
8CJ	.	.
=198	=198	=198
*tremolo	*	*
8CCL	4A-' 4f'	.
8C	.	.
8CC	4en' 4g'	.
8CJ	.	.
8CCL	4f' 4a-'	.
8C	.	.
8CC	4d' 4bn'	.
8CJ	.	.
=199	=199	=199
8CCL	4e-X' 4cc'	.
8C	.	.
8CC	2enz 2ccz	.
8CJ	.	.
8CCL	.	.
8C	.	.
8CC	4b-' 4een'	.
8CJ	.	.
=200	=200	=200
8CCL	4a-' 4ff'	.
8C	.	.
8CC	4een' 4gg'	.
8CJ	.	.
8CCL	4ff' 4aa-'	.
8C	.	.
8CC	4dd' 4bbn'	.
8CJ	.	.
=201	=201	=201
8CCL	2cc' 2ee-X' 2gg' 2ccc'	<
8C	.	.
8CC	.	.
8CJ	.	.
8DDL	2g' 2bn' 2ff' 2gg'	.
8D	.	.
8DD	.	.
8DJ	.	.
=202	=202	=202
8EE-L	2g' 2cc' 2ee-'	.
8E-	.	.
8EE-	.	.
8E-J	.	.
8FFL	2f'\ 2a-'\ 2dd'\	.
8F	.	.
8FF	.	.
8FJ	.	.
=203	=203	=203
*	*^	*
8GGL	[<1e- [1cc	2g	.
8G	.	.	.
8GG	.	.	.
8GJ	.	.	.
8AA-/L	.	2f#	.
8A-/	.	.	.
8AA-/	.	.	.
8A-/J	.	.	.
*	*v	*v	*
=204	=204	=204
8FF#L	(>2e-] 2an 2cc]	.
8F#	.	.
8FF#	.	.
8F#J	.	.
8GGL	2d 2f 2bn)	.
8G	.	.
8GG	.	.
8GJ	.	.
=205	=205	=205
8CCL	4c' 4e-' 4cc'	p
8C	.	.
8CC	2c	.
8CJ	.	.
8CCL	.	.
8C	.	.
8CC	4B-X' 4en'	.
8CJ	.	.
=206	=206	=206
8CCL	4A-' 4f'	.
8C	.	.
8CC	4en' 4g'	.
8CJ	.	.
8CCL	4f' 4a-X'	.
8C	.	.
8CC	4d' 4bn'	.
8CJ	.	.
=207	=207	=207
8CCL	4e-X' 4cc'	.
8C	.	.
8CC	2enz 2ccz	.
8CJ	.	.
8CCL	.	.
8C	.	.
8CC	4b-X' 4een'	.
8CJ	.	.
=208	=208	=208
8CCL	4a-' 4ff'	.
8C	.	.
8CC	4een' 4gg'	.
8CJ	.	.
8CCL	4ff' 4aa-'	.
8C	.	.
8CC	4dd' 4bbn'	.
8CJ	.	.
=209	=209	=209
8CCL	2cc' 2ee-X' 2gg' 2ccc'	<
8C	.	.
8CC	.	.
8CJ	.	.
8CCL	2a-' 2ee-' 2aa-'	.
8C	.	.
8CC	.	.
8CJ	.	.
=210	=210	=210
8DD-L	2a-' 2dd-' 2ff'	.
8D-	.	.
8DD-	.	.
8D-J	.	.
8EE-L	2g-' 2cc' 2ee-'	.
8E-	.	.
8EE-	.	.
8E-J	.	.
=211	=211	=211
8FFL	2f' 2a-' 2dd-'	.
8F	.	.
8FF	.	.
8FJ	.	.
8GG-L	2d-' 2g-' 2b-'	.
8G-	.	.
8GG-	.	.
8G-J	.	.
=212	=212	=212
*	*^	*
8AA-/L	1a-	(2d- 2f	.
8A-/	.	.	.
8AA-/	.	.	.
8A-/J	.	.	.
8AA-/L	.	2c) 2e-	.
8A-/	.	.	.
8AA-/	.	.	.
8A-/J	.	.	.
*	*v	*v	*
=213	=213	=213
8AA-/L	2d' 2f' 2b-'	p
8A-/	.	.
8AA-/	.	.
8A-/J	.	.
8DDnL	2b-' 2ff' 2bb-'	<
8Dn	.	.
8DD	.	.
8DJ	.	.
=214	=214	=214
8EE-L	2b-' 2ee-' 2gg-'	.
8E-	.	.
8EE-	.	.
8E-J	.	.
8FFL	2a-' 2ddn' 2ff'	.
8F	.	.
8FF	.	.
8FJ	.	.
=215	=215	=215
8GG-L	2g-' 2b-' 2ee-'	.
8G-	.	.
8GG-	.	.
8G-J	.	.
8AA-/L	2e-' 2a-' 2cc-'	.
8A-/	.	.
8AA-/	.	.
8A-/J	.	.
=216	=216	=216
*	*^	*
8BB-/L	1b-	(2e- 2g-	.
8B-	.	.	.
8BB-	.	.	.
8B-J	.	.	.
8BB-L/	.	2d) 2f	.
8B-	.	.	.
8BB-	.	.	.
8B-J	.	.	.
*	*v	*v	*
=217	=217	=217
8BB-L/	2en' 2g' 2cc'	p
8B-	.	.
8BB-	.	.
8B-J	.	.
8EEnL	2cc' 2gg' 2ccc'	<
8En	.	.
8EE	.	.
8EJ	.	.
=218	=218	=218
8FFL	2cc' 2ff' 2aa-'	.
8F	.	.
8FF	.	.
8FJ	.	.
8GGL	2b-' 2een' 2gg'	.
8G	.	.
8GG	.	.
8GJ	.	.
=219	=219	=219
8AA-L/	2a-' 2cc' 2ff'	.
8A-	.	.
8AA-	.	.
8A-J	.	.
8BB-L/	2f'\ 2dd-'\	.
8B-	.	.
8BB-	.	.
8B-J	.	.
=220	=220	=220
8CL	2f' 2cc'	.
8c	.	.
8C	.	.
8cJ	.	.
8D-L	2f' 2bn'	.
8d-	.	.
8D-	.	.
8d-J	.	.
=221	=221	=221
4C 4c	4en' 4cc'	.
4r	(4Bn	p
2r	4c	.
.	4B	.
=222	=222	=222
1r	4c	.
.	4Bn	.
.	4c	.
.	4B)	.
*clefG2	*	*
=223	=223	=223
*^	*	*
4r	1c	4r	.
*	*	*clefF4	*clefF4
4f 4a-	.	4C'\	.
4f 4a-	.	4F'	.
4f 4a-	.	4G'	.
=224	=224	=224	=224
4r	1c	4A-'	.
*	*	*clefG2	*clefG2
4f 4a-	.	4cc'	.
4f 4a-	.	4ff'	.
4f 4a-	.	4gg'	.
=225	=225	=225	=225
.	.	(8ccq	.
4r	1c	(2.aa-z)	.
4f 4a-	.	.	.
4f 4a-	.	.	.
4f 4a-	.	4ff)	.
=226	=226	=226	=226
.	.	(8ccq	.
4r	1c	(2.aa-z)	.
4f 4a-	.	.	.
4f 4a-	.	.	.
4f 4a-	.	4ff)	.
=227	=227	=227	=227
4r	1c	4een'	.
*	*	*clefF4	*clefF4
4g 4b-	.	4C'\	.
4g 4b-	.	4G'	.
4g 4b-	.	4A-'	.
=228	=228	=228	=228
4r	1c	4B-'	.
*	*	*clefG2	*clefG2
4g 4b-	.	(4cc	.
4g 4b-	.	4bb-	.
4g 4b-	.	4aa-)	.
=229	=229	=229	=229
4r	1c	(4aa-M	.
4g 4b-	.	4gg)	.
4g 4b-	.	(4ggm	.
4g 4b-	.	4ff)	.
=230	=230	=230	=230
4r	1c	(4ffM	.
4g 4b-	.	4een)	.
4g 4b-	.	4dd'	.
4g 4b-	.	4ee'	.
=231	=231	=231	=231
4r	1c	4ff'	.
*	*	*clefF4	*clefF4
4f 4a-	.	4C'\	.
4f 4a-	.	4F'	.
4f 4a-	.	4G'	.
=232	=232	=232	=232
4r	1c	4A-'	.
*	*	*clefG2	*clefG2
4f 4a-	.	4cc'	.
4f 4a-	.	4ff'	.
4f 4a-	.	4aa-'	.
=233	=233	=233	=233
.	.	(8ccq	.
4r	1A-	(2.cccz)	.
4c 4f	.	.	.
4c 4f	.	.	.
4c 4f	.	4ff)	.
=234	=234	=234	=234
.	.	(8ffq	.
4r	1A-	(2.fffz)	.
4c 4f	.	.	.
4c 4f	.	.	.
4c 4f	.	4ccc)	.
=235	=235	=235	=235
4r	1G	4bbn'	.
*	*	*clefF4	*clefF4
4d 4f	.	4GG'	.
4d 4f	.	4D'	.
4d 4f	.	4E-'	.
=236	=236	=236	=236
4r	1G	4F'	.
*	*	*clefG2	*clefG2
4d 4f	.	(4g	.
4d 4f	.	4ff	.
4d 4f	.	4ee-)	.
=237	=237	=237	=237
4r	1G	(4ee-M	.
4d 4f	.	4dd)	.
4d 4f	.	(4ddm	.
4d 4f	.	4cc)	.
=238	=238	=238	=238
4r	1G	(4ccM	.
4d 4f	.	4bn)	.
4d 4f	.	4an'\	.
4d 4f	.	4b'	.
=239	=239	=239	=239
4r	1G	4cc'	.
*	*	*clefF4	*clefF4
4c 4e-	.	4GG'	.
4c 4e-	.	4C'	.
4c 4e-	.	4D'/	.
=240	=240	=240	=240
4r	1G	4E-'	.
*	*	*clefG2	*clefG2
4c 4e-	.	4gg'	.
4c 4e-	.	4ccc'	.
4c 4e-	.	4ddd'	.
=241	=241	=241	=241
.	.	(8ggq	.
4r	1G	(2.eee-z)	.
4c 4e-	.	.	.
4c 4e-	.	.	.
4c 4e-	.	4ccc)	.
=242	=242	=242	=242
.	.	(8ggq	.
4r	1G	(2.eee-z)	.
4c 4e-	.	.	.
4c 4e-	.	.	.
4c 4e-	.	4ccc)	.
=243	=243	=243	=243
4r	1G	4bbn'	.
*	*	*clefF4	*clefF4
4d 4f	.	4GG'	.
4d 4f	.	4D'	.
4d 4f	.	4E-'	.
=244	=244	=244	=244
4r	1G	4F'	.
*	*	*clefG2	*clefG2
4d 4f	.	(4gg	.
4d 4f	.	4fff	.
4d 4f	.	4eee-)	.
=245	=245	=245	=245
4r	1G	(4eee-M	.
4d 4f	.	4ddd)	.
4d 4f	.	(4dddm	.
4d 4f	.	4ccc)	.
=246	=246	=246	=246
4r	1G	(4cccM	.
4d 4f	.	4bbn)	.
4d 4f	.	(4aan	.
4d 4f	.	4bb)	.
=247	=247	=247	=247
4r	1c	(4dddm	>
4e- 4g	.	4ccc)	.
4e- 4g	.	(4cccM	.
4e- 4g	.	4bb-X)	.
=248	=248	=248	=248
4r	1F	(4bb-M	.
4e- 4f	.	4aan)	.
4e- 4f	.	(4gg	.
4e- 4f	.	4aa)	.
=249	=249	=249	=249
4r	1B-	(4cccm	.
4d- 4f	.	4bb-X)	.
4d- 4f	.	(4bb-M	.
4d- 4f	.	4aa-X)	.
=250	=250	=250	=250
4r	1E-	(4aa-M	.
4d- 4e-	.	4gg)	.
4d- 4e-	.	(4ff	.
4d- 4e-	.	4gg)	.
=251	=251	=251	=251
4r	1A-	(4bb-M	.
4c 4e-	.	4aa-)	.
4c 4e-	.	(4aa-M	.
4c 4e-	.	4gg)	.
=252	=252	=252	=252
4r	1A-	(4ggm	.
4c 4e-	.	4ff#)	.
4c 4e-	.	4ff#'	.
4c 4e-	.	4ff#'	.
=253	=253	=253	=253
4r	1G	(4aa-M	pp
4c 4e-	.	4gg)	.
4c 4e-	.	4gg'	.
4c 4e-	.	4gg'	.
=254	=254	=254	=254
4r	1G	(4aa-M	.
4Bn 4d	.	4gg)	.
4B 4d	.	4gg'	.
4B 4d	.	4gg'	.
*v	*v	*	*
*clefF4	*	*
=255	=255	=255
*Xtremolo	*Xtremolo	*
*^	*^	*
8rA	[1C	2ryy	8r	.
8GL	.	.	8cL<	p
8E-	.	.	8e-	.
8GJ	.	.	8cJ	.
8E-L	.	[2cc	8ccL	.
8G	.	.	8c	.
8E-	.	.	8e-	.
8GJ	.	.	8cJ	.
=256	=256	=256	=256	=256
8E-L	2C]	2cc]	8e-L	.
8G	.	.	8c	.
8E-	.	.	8e-	.
8GJ	.	.	8cJ	.
8rA	2C	2cc	8rc	.
8GL	.	.	8cL	.
8E-	.	.	8e-	.
8GJ	.	.	8cJ	.
=257	=257	=257	=257	=257
8r	[1BB-	2ryy	8r	.
8GL	.	.	8d-L<	.
8En	.	.	8en	.
8GJ	.	.	8d-J	.
8EL	.	[2dd-	8dd-L	.
8G	.	.	8d-	.
8E	.	.	8e	.
8GJ	.	.	8d-J	.
=258	=258	=258	=258	=258
8EnL	2BB-]	2dd-]	8enL	.
8G	.	.	8d-	.
8E	.	.	8e	.
8GJ	.	.	8d-J	.
8r	2BB-	2dd-	8re	.
8GL	.	.	8d-L	.
8E	.	.	8e	.
8GJ	.	.	8d-J	.
*v	*v	*	*	*
*	*v	*v	*
=259	=259	=259
8AA-'L	8cc'>L	<
8F	8c	.
8C	8f	.
8FJ	8cJ	.
8BB-'L	8een'>L	.
8G	8en	.
8C	8cc	.
8GJ	8eJ	.
=260	=260	=260
8AA-'L	8ff'L<	.
8F	8f	.
8C	8cc	.
8FJ	8fJ	.
8GG'L	8gg'L	.
8G	8g	.
8C	8cc	.
8GJ	8gJ	.
=261	=261	=261
8FF'L	8aa-'L	.
8F	8a-	.
8C	8cc	.
8FJ	8a-J	.
8EE-X'L	8aan'L	.
8E-X	8an	.
8C	8cc	.
8E-J	8aJ	.
=262	=262	=262
8DD'L	8bbn'L	<
8D	8bn	.
8GG	8ff	.
8DJ	8bJ	.
8CC'L	8ccc'L	.
8C	8cc	.
8GG	8ff	.
8CJ	8ccJ	.
=263	=263	=263
8BBBn'L	8ddd'L	.
8BBn	8dd	.
8GG	8ff	.
8BBJ	8ddJ	.
8BBB-'L	8eeen'L	.
8BB-	8een	.
8CC	8gg	.
8BB-J	8eeJ	.
=264	=264	=264
8AAA-'L	8fff'L	.
8AA-	8ff	.
8CC	8aa-	.
8AA-J	8ffJ	[
8FFF'L	8ddd'L	.
8FF	8ff	.
8CC	8aa-	.
8FFJ	8ffJ	.
=265	=265	=265
4GGG 4GG	8r	.
.	8ee-XL	f
4r	8gg	.
.	8ee-J	.
2r	8cccL	.
.	8ee-	.
.	8gg	.
.	8ee-J	.
=266	=266	=266
4GG 4G	8r	.
.	8ddL	.
4r	8ff	.
.	8ddJ	.
2r	8bbn'L	.
.	8dd	.
.	8ff	.
.	8ddJ	.
=267	=267	=267
*^	*^	*
8rA	[1C	2ryy	8r	.
8GL	.	.	8cL<	p
8E-	.	.	8e-	.
8GJ	.	.	8cJ	.
8E-L	.	[2cc	8ccL	.
8G	.	.	8c	.
8E-	.	.	8e-	.
8GJ	.	.	8cJ	.
=268	=268	=268	=268	=268
8E-L	2C]	2cc]	8e-L	.
8G	.	.	8c	.
8E-	.	.	8e-	.
8GJ	.	.	8cJ	.
8rA	2C	2cc	8rc	.
8GL	.	.	8cL	.
8E-	.	.	8e-	.
8GJ	.	.	8cJ	.
=269	=269	=269	=269	=269
8r	[1BB-	2ryy	8r	.
8GL	.	.	8d-L<	.
8En	.	.	8en	.
8GJ	.	.	8d-J	.
8EL	.	[2dd-	8dd-L	.
8G	.	.	8d-	.
8E	.	.	8e	.
8GJ	.	.	8d-J	.
=270	=270	=270	=270	=270
8EnL	2BB-]	2dd-]	8enL	.
8G	.	.	8d-	.
8E	.	.	8e	.
8GJ	.	.	8d-J	.
8rA	2BB-	2dd-	8rc	.
8GL	.	.	8d-L	.
8E	.	.	8e	.
8GJ	.	.	8d-J	.
*v	*v	*	*	*
*	*v	*v	*
=271	=271	=271
8AA-'L	8cc'L	<
8F	8c	.
8C	8f	.
8FJ	8cJ	.
8BB-'L	8een'L	.
8G	8en	.
8C	8cc	.
8GJ	8eJ	.
=272	=272	=272
8AA-'L	8ff'L<	.
8F	8f	.
8C	8cc	.
8FJ	8fJ	.
8GG'L	8gg'L	.
8G	8g	.
8C	8cc	.
8GJ	8gJ	.
=273	=273	=273
8FF'L	8aa-'L	.
8F	8a-	.
8C	8cc	.
8FJ	8a-J	.
8EE-'L	8aan'L	.
8E-	8an	.
8C	8cc	.
8E-J	8aJ	.
=274	=274	=274
8DD'L	8bbn'L	<
8D	8bn	.
8GG	8ff	.
8DJ	8bJ	.
8CC'L	8ccc'L	.
8C	8cc	.
8GG	8ff	.
8CJ	8ccJ	.
=275	=275	=275
8BBBn'L	8ddd'L	.
8BBn	8dd	.
8GG	8ff	.
8BBJ	8ddJ	.
8BBB-'L	8eeen'L	.
8BB-	8een	.
8CC	8gg	.
8BB-J	8eeJ	.
=276	=276	=276
8AAA-'L	8fff'L	.
8AA-	8ff	.
8CC	8aa-	.
8AA-J	8ffJ	.
8FFF'L	8ddd'L	.
8FF	8ff	.
8CC	8aa-	.
8FFJ	8ffJ	[
=277	=277	=277
4GGG 4GG	8r	.
.	8ee-XL	f
4r	8gg	.
.	8ee-J	.
2r	8ccc'L	.
.	8ee-	.
.	8gg	.
.	8ee-J	.
=278	=278	=278
4GG 4G	8r	.
.	8ddL	.
4r	8ff	.
.	8ddJ	.
2r	8bbn'L	.
.	8dd	.
.	8ff	.
.	8ddJ	.
=279	=279	=279
4C	4cc	.
4c 4e-	(2ccc	p
4c 4e-	.	.
4c 4e-	8bbnL	.
.	8cccJ	.
=280	=280	=280
*^	*	*
4r	1A-	8dddL	.
.	.	8ccc	.
4c 4e-	.	8bb-X	.
.	.	8aa-J	.
4c 4e-	.	8ggL	.
.	.	8aa-	.
4c 4e-	.	8bb-	.
.	.	8aa-J	.
=281	=281	=281	=281
4r	1F	8ggL	.
.	.	8ff	.
4c 4d	.	8ee-	.
.	.	8ddJ	.
4c 4d	.	8cc#L	.
.	.	8dd	.
4c 4d	.	8ee-	.
.	.	8ddJ	.
=282	=282	=282	=282
4r	1G	8ccnL	.
.	.	8bn	.
4Bn 4d	.	8a-	.
.	.	8gJ	.
4B 4d	.	8f#L	.
.	.	8g	.
4B 4d	.	8a-	.
.	.	8fnJ	.
=283	=283	=283	=283
4r	1C	4e-')	.
4E- 4c	.	2cc (2ccc	<
4E- 4c	.	.	.
4E- 4c	.	8bbnL	.
.	.	8cccJ	.
=284	=284	=284	=284
4r	1AA-	8dddL	.
.	.	8ccc	.
4C 4E- 4A-	.	8bb-X	.
.	.	8aa-J	.
4C 4E- 4A-	.	8ggL	.
.	.	8aa-	.
4C 4E- 4A-	.	8bb-	.
.	.	8aa-J	.
=285	=285	=285	=285
4r	1FF	8ggL	.
.	.	8ff	.
4C 4D 4F	.	8ee-	.
.	.	8ddJ	.
4C 4D 4F	.	8cc#L	.
.	.	8dd	.
4C 4D 4F	.	8ee-	.
.	.	8ddJ	.
=286	=286	=286	=286
4r	1GG	8ccnL	.
.	.	8bn	.
4BBn 4D 4G	.	8a-	.
.	.	8gJ	.
4BB 4D 4G	.	8f#L	.
.	.	8g	.
4BB 4D 4G	.	8a-	.
.	.	8gJ	.
*v	*v	*	*
=287	=287	=287
8CCL	4cc)	.
8C	.	.
8CC	2c	f
8CJ	.	.
*tremolo	*	*
8CCL	.	.
8C	.	.
8CC	4B-X' 4en'	.
8CJ	.	.
=288	=288	=288
8CCL	4A-' 4f'	.
8C	.	.
8CC	4en' 4g'	.
8CJ	.	.
8CCL	4f' 4a-'	.
8C	.	.
8CC	4d' 4bn'	.
8CJ	.	.
=289	=289	=289
8CCL	4e-' 4cc'	.
8C	.	.
8CC	2enz 2ccz	.
8CJ	.	.
8CCL	.	.
8C	.	.
8CC	4b-X' 4een'	.
8CJ	.	.
=290	=290	=290
8CCL	4a-' 4ff'	.
8C	.	.
8CC	4een' 4gg'	.
8CJ	.	.
8CCL	4ff' 4aa-'	.
8C	.	.
8CC	4dd' 4bbn'	.
8CJ	.	.
=291	=291	=291
8CCL	1cc 1ee-X 1ccc	f
8C	.	.
8CC	.	.
8CJ	.	.
8CCL	.	.
8C	.	.
8CC	.	.
8CJ	.	.
=292	=292	=292
8BBB-XL	1c 1e- 1cc	.
8BB-X	.	.
8BBB-	.	.
8BB-J	.	.
8BBB-L	.	.
8BB-	.	.
8BBB-	.	.
8BB-J	.	.
=293	=293	=293
8AAA-L	1cc 1ee- 1ccc	.
8AA-	.	.
8AAA-	.	.
8AA-J	.	.
8AAA-L	.	.
8AA-	.	.
8AAA-	.	.
8AA-J	.	.
=294	=294	=294
8GGGL	1c 1e- 1cc	.
8GG	.	.
8GGG	.	.
8GGJ	.	.
8GGGL	.	.
8GG	.	.
8GGG	.	.
8GGJ	.	.
=295	=295	=295
1FFF# 1FF#	1ee- 1aan 1ccc 1eee-	ff
=296	=296	=296
1FF#; 1AAn; 1C; 1E-;	1F#; 1An; 1c; 1e-;	ff
=297||	=297||	=297||
!!!OMD: Grave
*M4/4	*M4/4	*M4/4
*MM40	*MM40	*MM40
4r	4r	.
16r	16r	.
32e-LLK	32f# 32an 32ccLLK	p
16.d	16.f# 16.a 16.dd	.
32cJJk	32f# 32a 32ee-JJk	.
(4c	4f#/ 4a/ (>4ee-/	.
8Bn)	8g/ 8bn/ 8dd/)	.
8r	8r	.
=298	=298	=298
4r	4r	.
16.r	16.r	.
*clefG2	*	*
32a-LLK	32bn 32dd 32ffnLLK	.
16.g	16.b 16.dd 16.gg	.
32fJJk	32b 32dd 32aa-JJk	.
(4f	4b 4dd (4aa-	.
8e-)	8cc 8ee- 8gg)	.
8r	8r	.
=299	=299	=299
4r	4r	.
16.r	16.r	.
32d- 32en 32gLLK	32b-X 32een 32gg 32bb-XLLK	<
16.c 16.e 16.g	16.cc 16.ee 16.gg 16.ccc	.
32B-X 32e 32gJJk	32dd- 32ee 32gg 32ddd-JJk	.
(>[4A- 4B- 4e 4g	4dd- 4ee 4gg 4ddd-	sf >
*Xtremolo	*	*
8A-] 8c 8f 8a-L	8cc (8cccL	.
8G 8c 8e-J	8b- 8bb-J	]]
*clefF4	*	*
=300	=300	=300
8F 8c 8fL	8a- 8aa-L	>
8E-X 8G 8c	8g 8gg	.
8D 8G 8Bn	8f 8ff	.
8C 8G 8cJ	8e- 8ee-J)	.
8F)	8r	.
8r	8f 8a- 8dd	pp
8GGG\ 8GG\	8r	.
8rGG	8D< 8F< 8B<	.
=301||	=301||	=301||
!!!OMD: Allegro molto e con brio
*M2/2	*M2/2	*M2/2
*MM320	*MM320	*MM320
*tremolo	*	*
8CCL	2.c	p
8C	.	.
8CC	.	.
8CJ	.	.
8CCL	.	.
8C	.	.
8CC	4B-X' 4en'	.
8CJ	.	.
=302	=302	=302
8CCL	4A-' 4f'	.
8C	.	.
8CC	4en' 4g'	.
8CJ	.	.
8CCL	4f' 4a-'	.
8C	.	.
8CC	4d' 4bn'	.
8CJ	.	.
=303	=303	=303
8CCL	4e-X' 4cc'	.
8C	.	.
8CC	2enz 2ccz	.
8CJ	.	.
8CCL	.	.
8C	.	.
8CC	4b-X' 4een'	.
8CJ	.	.
=304	=304	=304
8CCL	4a-' 4ff'	.
8C	.	.
8CC	4een' 4gg'	.
8CJ	.	.
8CCL	4ff' 4aa-'	.
8C	.	.
8CC	4dd' 4bbn'	.
8CJ	.	.
=305	=305	=305
8CCL	2ee-X' 2ccc'	<
8C	.	.
8CC	.	.
8CJ	.	.
8BBB-XL	2cc' 2ee-' 2ccc'	.
8BB-X	.	.
8BBB-	.	.
8BB-XJ	.	.
=306	=306	=306
8AAA-L	2cc' 2ee-' 2ccc'	.
8AA-	.	.
8AAA-	.	.
8AA-J	.	.
8GGGL	2cc' 2ee-' 2ccc'	.
8GG	.	.
8GGG	.	.
8GGJ	.	.
=307	=307	=307
4FFF#' 4FF#'	4ee-' 4aan' 4ccc' 4eee-'	ff
4r	4r	.
2r	2r	.
=308	=308	=308
4F#' 4An' 4c' 4e-'	4f#' 4an' 4cc' 4ee-'	.
4r	4r	.
2r	2r	.
=309	=309	=309
4G' 4c' 4e-'	4g' 4cc' 4ee-' 4gg'	.
4r	4r	.
2r	2r	.
*	*clefF4	*clefF4
=310	=310	=310
4GGG'< 4BBBn'< 4DD'< 4GG'<	4D<'> 4F<'> 4G<'> 4Bn<'>	ff
4rDD	4r	.
2rDD	2r	.
=311	=311	=311
4CC'< 4EE-'< 4GG'< 4C'<	4E-<'> 4G<'> 4c<'>	.
4rDD	4r	.
2rDD	2r	.
=312	=312	=312
1r;	1r;	.
==	==	==
*-	*-	*-
!!!RDF**kern: > = above
!!!RDF**kern: < = below
!!!RDF**kern: i = editorial accidental
!!!verovio: beamFrenchStyle
!!!LOR: Durand 1915, plates 9327/9328, Paul Dukas, ed.
!!!PED: Dukas, Paul
!!!URL-vhv: https://verovio.humdrum.org/?file=beethoven/sonatas/sonata08-1.krn
!!!URL-pdf: https://github.com/craigsapp/beethoven-piano-sonatas/blob/master/reference-edition/sonata08-1.pdf
!!!ENC: Craig Stuart Sapp
!!!END: 2008/02/25
!!!EED: Craig Stuart Sapp
!!!EEV: 2021/01/19
